X:1225
T: Fair Miss McGuinness
T: In\'ion Mhic Aonghusa
S: B.Breathnach:"Ceol Rince na hEireann" IV/172
Z: B.Black
L: 1/8
M: 4/4
R: reel
K: Ador
eaab a2 ge|dega g2 ed|eaab a2 ge|dBGA BA A2|
eaab a2 ge|dega g2 ga|bgaf gfed|BGEF GABG ||
A2 eA (3ABA eA|A2 eA dBGB|A2 eA (3ABA BG|EFGA BABG|
A2 eA (3ABA eA|A2 eA dBGB|A2 eA (3ABA BG|EFGA BA A2 ||
